X: 1
T: Bea's Waltz
C: Jane Rothfield
R: waltz
S: Fiddle Hell Online 2020-11-05
Z: 2020 John Chambers <jc:trillian.mit.edu>
M: 3/4
L: 1/8
K: G
BFG |\
"G"D3 BFG | "Am7"E3 GFE | "D"DE FG A/F/D | "Csus4"d3 BFG |\
"G"D3 BFG | "Am7"E3 GFE | "D"DE FG A<B |1 "G"G3 :|2 "G"G4- G ||
|: B |\
"Am7"AB c2 e2 | "G"d4- dB | "Am7"AB c2 c<A | "Em"BG2A (3Bcd |\
"Am7"ec A2 e2 | "Bm"dB G2- GB | "C"AB cB AE |1 "D"F4- F :|2 "D"F3 |]
